dist/static/img/about/03.svg

<svg width="48" height="48" viewBox="0 0 48 48" fill="none" xmlns="http://www.w3.org/2000/svg">
<g clip-path="url(#clip0_885_1026)">
<path d="M0.774196 41.8096H1.95097C2.03149 42.0388 2.12517 42.2625 2.22891 42.4816L1.39665 43.3139C1.2511 43.4594 1.16981 43.6561 1.16981 43.8612C1.16981 44.0664 1.2511 44.2638 1.39665 44.4086L3.59072 46.6027C3.88104 46.893 4.39511 46.893 4.68543 46.6027L5.51847 45.7696C5.73756 45.8741 5.96131 45.9663 6.18969 46.0468V47.2259C6.18969 47.6532 6.53653 48.0001 6.96389 48.0001H10.0669C10.4942 48.0001 10.8411 47.6532 10.8411 47.2259V46.0452C11.0687 45.9647 11.2924 45.8718 11.51 45.7681L12.3453 46.6034C12.4909 46.749 12.6875 46.8303 12.8927 46.8303C13.0978 46.8303 13.2953 46.749 13.44 46.6034L15.6341 44.4094C15.7797 44.2638 15.8609 44.0672 15.8609 43.862C15.8609 43.6568 15.7797 43.4594 15.6341 43.3146L14.798 42.4785C14.9017 42.261 14.9938 42.038 15.0744 41.8104H16.2581C16.6855 41.8104 17.0323 41.4635 17.0323 41.0362V37.9332C17.0323 37.5059 16.6855 37.159 16.2581 37.159H15.0751C14.9946 36.9314 14.9025 36.7084 14.7987 36.4909L15.6349 35.6548C15.7804 35.5092 15.8617 35.3126 15.8617 35.1074C15.8617 34.9022 15.7804 34.7048 15.6349 34.56L13.4408 32.366C13.1505 32.0756 12.6364 32.0756 12.3461 32.366L11.5107 33.2013C11.2932 33.0976 11.0694 33.0055 10.8418 32.9242V31.742C10.8418 31.3146 10.495 30.9678 10.0676 30.9678H6.96466C6.53731 30.9678 6.19047 31.3146 6.19047 31.742V32.9203C5.96208 33.0008 5.73834 33.0937 5.51924 33.1975L4.68621 32.3644C4.54066 32.2189 4.34401 32.1376 4.13885 32.1376C3.93369 32.1376 3.73627 32.2189 3.59149 32.3644L1.39742 34.5585C1.25187 34.704 1.17058 34.9007 1.17058 35.1059C1.17058 35.311 1.25187 35.5084 1.39742 35.6532L2.22968 36.4855C2.12517 36.7053 2.03226 36.9291 1.95097 37.1582H0.774196C0.34684 37.1582 0 37.5051 0 37.9324V41.0354C0 41.4628 0.34684 41.8096 0.774196 41.8096ZM1.54839 38.7066H2.5231C2.87614 38.7066 3.18427 38.4674 3.27253 38.126C3.39872 37.6375 3.59227 37.1699 3.84775 36.7371C4.02737 36.4328 3.97782 36.0457 3.72853 35.7964L3.03872 35.1066L4.13808 34.0073L4.82788 34.6978C5.0764 34.9471 5.46272 34.9967 5.76853 34.8171C6.20131 34.5624 6.66815 34.3688 7.15667 34.2434C7.49886 34.1551 7.73731 33.847 7.73731 33.494V32.5162H9.2919V33.4947C9.2919 33.8478 9.53035 34.1559 9.87177 34.2442C10.3611 34.3711 10.8271 34.5647 11.2591 34.8194C11.5626 34.9982 11.9513 34.9495 12.1998 34.7002L12.8919 34.0073L13.9913 35.1066L13.2976 35.8003C13.0483 36.0496 12.9987 36.4367 13.1784 36.741C13.4323 37.1722 13.6251 37.6382 13.7513 38.1275C13.8395 38.469 14.1477 38.7082 14.5007 38.7082H15.4839V40.2628H14.503C14.15 40.2628 13.8418 40.5012 13.7536 40.8434C13.6274 41.3319 13.4338 41.7988 13.1807 42.23C13.0011 42.5343 13.0506 42.9214 13.2999 43.1706L13.9928 43.8636L12.8935 44.9629L12.2013 44.2685C11.9528 44.0192 11.5649 43.9696 11.2607 44.1492C10.8294 44.4039 10.3626 44.5975 9.87332 44.7245C9.5319 44.8127 9.29344 45.1208 9.29344 45.4739V46.4517H7.73886V45.4747C7.73886 45.1216 7.49963 44.8135 7.15821 44.7252C6.6697 44.599 6.20208 44.4063 5.77008 44.1516C5.46427 43.9727 5.07795 44.0223 4.82943 44.2708L4.13962 44.9606L3.04027 43.8612L3.7293 43.1722C3.97937 42.9229 4.02814 42.5358 3.84853 42.2315C3.59304 41.798 3.39949 41.3312 3.2733 40.8426C3.18504 40.5012 2.87691 40.262 2.52388 40.262H1.54839V38.7066Z" fill="white"/>
<path d="M8.51649 43.3549C10.6509 43.3549 12.3875 41.6184 12.3875 39.4839C12.3875 37.3494 10.6509 35.6129 8.51649 35.6129C6.38203 35.6129 4.64551 37.3494 4.64551 39.4839C4.64551 41.6184 6.38203 43.3549 8.51649 43.3549ZM8.51649 37.1613C9.79701 37.1613 10.8391 38.2034 10.8391 39.4839C10.8391 40.7644 9.79701 41.8065 8.51649 41.8065C7.23597 41.8065 6.1939 40.7644 6.1939 39.4839C6.1939 38.2034 7.23597 37.1613 8.51649 37.1613Z" fill="white"/>
<path d="M47.9596 4.07679C47.8675 3.80195 47.629 3.60066 47.3426 3.55731L44.5415 3.12995L43.2819 0.445815C43.1542 0.173298 42.8809 -0.00012207 42.5805 -0.00012207C42.2801 -0.00012207 42.0068 0.173298 41.8798 0.44504L40.6202 3.12918L37.8192 3.55653C37.532 3.60066 37.2943 3.80118 37.2022 4.07602C37.11 4.35086 37.1797 4.65512 37.3818 4.8626L39.4311 6.96299L38.9464 9.939C38.8984 10.2316 39.0223 10.5258 39.2646 10.6969C39.5069 10.8673 39.8251 10.8843 40.0853 10.7418L42.5805 9.36223L45.0765 10.7418C45.1934 10.8061 45.3227 10.8386 45.4512 10.8386C45.6076 10.8386 45.764 10.7906 45.8972 10.6969C46.1395 10.5266 46.2633 10.2316 46.2153 9.939L45.7307 6.96299L47.78 4.8626C47.9828 4.65589 48.0517 4.35241 47.9596 4.07679ZM44.3488 6.16248C44.1769 6.33822 44.0995 6.58519 44.139 6.82751L44.43 8.61513L42.9544 7.7999C42.8383 7.73564 42.709 7.70312 42.5797 7.70312C42.4504 7.70312 42.3219 7.73564 42.205 7.7999L40.7294 8.61513L41.0205 6.82751C41.06 6.58519 40.9826 6.33822 40.8107 6.16248L39.5402 4.86028L41.2605 4.59783C41.516 4.55834 41.7351 4.39499 41.8442 4.16118L42.5805 2.59653L43.3152 4.16118C43.4251 4.39499 43.6442 4.55834 43.899 4.59783L45.6192 4.86028L44.3488 6.16248Z" fill="white"/>
<path d="M35.9047 9.34913C35.4835 9.28487 35.0484 9.39635 34.7124 9.65958L28.6381 14.4116C28.9718 13.7698 29.1258 13.049 29.0639 12.3104C28.9772 11.28 28.4941 10.3455 27.7036 9.67816C26.9132 9.0108 25.9121 8.69261 24.8809 8.77854C23.8505 8.86603 22.916 9.34912 22.2486 10.1388C21.5821 10.9293 21.2623 11.9311 21.349 12.9615C21.4233 13.8348 21.795 14.6284 22.3834 15.2593C21.4822 15.4823 20.6871 16.0157 20.1537 16.7783L14.0538 25.104C13.7054 25.6018 13.6775 26.2382 13.981 26.7647C14.2837 27.2903 14.8442 27.583 15.4535 27.535L17.3085 27.3778C17.7591 27.3399 18.1694 27.1076 18.4226 26.7554L22.1054 21.9104L22.3841 25.2163L20.5547 37.7644C19.8641 37.9061 19.1704 38.0331 18.4729 38.1306L18.6873 39.6635C21.1168 39.3237 23.5145 38.7268 25.813 37.8883C30.2724 36.2625 33.8368 33.9221 36.5852 31.5724L36.7586 31.5205L36.7346 31.44C39.3862 29.1469 41.266 26.8576 42.4358 25.2248C42.5852 25.0157 42.6216 24.7471 42.5326 24.5071C42.4443 24.2663 42.2422 24.0852 41.9937 24.0232L40.7999 23.7244L45.147 21.3097L46.1736 25.9301L45.1486 25.5887C44.8149 25.4772 44.4503 25.6049 44.2575 25.8968L44.129 26.0903C34.3965 40.9077 23.5779 44.4999 16.2153 44.9041L16.2997 46.4501C23.9666 46.029 35.1855 42.3461 45.2213 27.2447L46.9795 27.8307C47.2435 27.9198 47.5354 27.8578 47.7429 27.6712C47.9504 27.4847 48.0402 27.2005 47.9798 26.9288L46.4314 19.961C46.3788 19.7226 46.2162 19.5228 45.9932 19.423C45.7703 19.3239 45.514 19.3332 45.2995 19.4524L38.3318 23.3234C38.0538 23.4774 37.899 23.7863 37.9408 24.1014C37.9818 24.4165 38.2126 24.6743 38.5207 24.751L40.491 25.2434C39.4698 26.5641 38.06 28.1721 36.2461 29.8049L34.8657 25.1745C34.7372 24.7765 34.4484 24.4428 34.09 24.2671L30.9072 22.6095L30.4094 18.8253L37.498 13.4245C38.1537 12.9259 38.3039 12.0015 37.8394 11.321L36.9444 10.0064C36.706 9.65493 36.3266 9.41493 35.9047 9.34913ZM25.011 10.3223C25.0776 10.3169 25.1441 10.3138 25.2107 10.3138C25.7581 10.3138 26.2822 10.505 26.7049 10.8619C27.1787 11.2622 27.4683 11.8227 27.5209 12.4413C27.5728 13.0598 27.3816 13.6614 26.9813 14.1352C26.581 14.609 26.0205 14.8993 25.4019 14.9512C24.7826 15.0046 24.1818 14.8118 23.708 14.4116C23.2342 14.0113 22.9439 13.4508 22.892 12.8322C22.7844 11.5556 23.7351 10.4299 25.011 10.3223ZM26.0631 36.1293L27.6742 26.832L30.5201 28.2132L32.2025 32.9358C30.4087 34.1218 28.3656 35.222 26.0631 36.1293ZM29.1158 17.8661C28.8951 18.0341 28.7813 18.3073 28.8169 18.583L29.4254 23.2119C29.4587 23.4619 29.6112 23.681 29.8358 23.7972L33.3878 25.6336L34.9609 30.9112C34.5034 31.2844 34.0211 31.6545 33.5194 32.0214L31.9694 27.6705C31.827 27.3097 31.5576 27.0178 31.2107 26.8483L27.4272 24.9917C27.2089 24.8849 26.9527 24.8872 26.7343 24.9972C26.5168 25.1079 26.3643 25.3146 26.3232 25.5546L24.3862 36.7355C23.6569 36.9778 22.9199 37.2008 22.1743 37.3928L23.9302 25.3533C23.9387 25.2945 23.9403 25.2356 23.9356 25.176L23.4796 19.776C23.4525 19.4563 23.2319 19.1868 22.9245 19.0978C22.6164 19.0072 22.2858 19.1179 22.0923 19.3726L17.1792 25.8364L15.3142 26.0067L21.4141 17.681C21.8104 17.1151 22.4329 16.7566 23.1219 16.6978L25.532 16.4942H25.5336H25.5343L28.6195 16.2333C28.7697 16.2201 28.9129 16.1644 29.0314 16.0715L35.6678 10.8797L36.5635 12.1943L29.1158 17.8661Z" fill="white"/>
<path d="M2.32227 0.77417H3.87066V2.32256H2.32227V0.77417Z" fill="white"/>
<path d="M3.87109 2.32251H5.41949V3.8709H3.87109V2.32251Z" fill="white"/>
<path d="M0.774414 2.32251H2.32281V3.8709H0.774414V2.32251Z" fill="white"/>
<path d="M2.32227 3.87097H3.87066V5.41936H2.32227V3.87097Z" fill="white"/>
<path d="M8.51562 3.09668H10.064V4.64507H8.51562V3.09668Z" fill="white"/>
<path d="M10.0645 4.64514H11.6128V6.19353H10.0645V4.64514Z" fill="white"/>
<path d="M6.96777 4.64514H8.51616V6.19353H6.96777V4.64514Z" fill="white"/>
<path d="M8.51562 6.19348H10.064V7.74187H8.51562V6.19348Z" fill="white"/>
<path d="M44.1289 42.5807H45.6773V44.1291H44.1289V42.5807Z" fill="white"/>
<path d="M45.6777 44.1292H47.2261V45.6775H45.6777V44.1292Z" fill="white"/>
<path d="M42.5811 44.1292H44.1294V45.6775H42.5811V44.1292Z" fill="white"/>
<path d="M44.1289 45.6775H45.6773V47.2259H44.1289V45.6775Z" fill="white"/>
</g>
<defs>
<clipPath id="clip0_885_1026">
<rect width="48" height="48" fill="white"/>
</clipPath>
</defs>
</svg>

<svg width="48" height="48" viewBox="0 0 48 48" fill="none" xmlns="http://www.w3.org/2000/svg"><g clip-path="url(#clip0_885_1026)" fill="#fff"><path d="M.774 41.81h1.177c.08.229.174.453.278.672l-.832.832a.773.773 0 000 1.095l2.194 2.194c.29.29.804.29 1.094 0l.833-.833c.22.104.443.196.672.277v1.179c0 .427.347.774.774.774h3.103a.775.775 0 00.774-.774v-1.18c.228-.081.451-.174.669-.278l.835.835a.773.773 0 001.095 0l2.194-2.194a.773.773 0 000-1.094l-.836-.837c.104-.217.196-.44.276-.668h1.184a.774.774 0 00.774-.774v-3.103a.774.774 0 00-.774-.774h-1.183a6.867 6.867 0 00-.276-.668l.836-.836a.774.774 0 000-1.095l-2.194-2.194a.797.797 0 00-1.095 0l-.835.835a7.12 7.12 0 00-.67-.277v-1.182a.774.774 0 00-.773-.774H6.965a.774.774 0 00-.775.774v1.178c-.228.08-.452.174-.67.277l-.834-.833a.774.774 0 00-1.095 0L1.397 34.56a.773.773 0 000 1.094l.833.833a7.07 7.07 0 00-.279.672H.774a.775.775 0 00-.774.774v3.103c0 .428.347.775.774.775zm.774-3.103h.975c.353 0 .661-.24.75-.581.126-.488.32-.956.575-1.389a.774.774 0 00-.12-.94l-.69-.69 1.1-1.1.69.69c.248.25.635.3.94.12.433-.255.9-.448 1.389-.574a.774.774 0 00.58-.749v-.978h1.555v.979c0 .353.238.66.58.75.49.126.955.32 1.387.574.304.18.692.13.94-.119l.693-.693 1.1 1.1-.694.693a.774.774 0 00-.12.941c.254.431.447.897.573 1.386a.775.775 0 00.75.581h.983v1.555h-.981a.773.773 0 00-.75.58 5.44 5.44 0 01-.572 1.387.774.774 0 00.119.94l.693.694-1.1 1.099-.692-.694a.774.774 0 00-.94-.12 5.39 5.39 0 01-1.388.575.774.774 0 00-.58.75v.978H7.74v-.977a.774.774 0 00-.58-.75 5.384 5.384 0 01-1.389-.573.776.776 0 00-.94.119l-.69.69-1.1-1.1.69-.689a.773.773 0 00.119-.94 5.386 5.386 0 01-.576-1.39.774.774 0 00-.75-.58h-.975v-1.555z"/><path d="M8.516 43.355a3.875 3.875 0 003.871-3.871 3.875 3.875 0 00-3.87-3.871 3.875 3.875 0 00-3.871 3.87 3.875 3.875 0 003.87 3.872zm0-6.194a2.325 2.325 0 012.323 2.323 2.325 2.325 0 01-2.323 2.322 2.325 2.325 0 01-2.322-2.322 2.325 2.325 0 012.322-2.323zM47.96 4.077a.774.774 0 00-.617-.52L44.54 3.13 43.282.446A.774.774 0 0041.88.445l-1.26 2.684-2.8.428a.774.774 0 00-.438 1.306l2.05 2.1-.486 2.976a.775.775 0 001.14.803l2.495-1.38 2.495 1.38a.778.778 0 00.821-.045.774.774 0 00.318-.758l-.484-2.976 2.049-2.1a.772.772 0 00.18-.786zm-3.611 2.085a.773.773 0 00-.21.666l.291 1.787-1.476-.815a.774.774 0 00-.749 0l-1.476.815.291-1.787a.773.773 0 00-.21-.666L39.54 4.86l1.72-.262a.774.774 0 00.584-.437l.736-1.564.735 1.564a.78.78 0 00.584.437l1.72.262-1.27 1.302zM35.905 9.35a1.559 1.559 0 00-1.193.31l-6.074 4.752a3.841 3.841 0 00.426-2.102 3.844 3.844 0 00-1.36-2.632 3.848 3.848 0 00-2.823-.9 3.85 3.85 0 00-2.632 1.36 3.831 3.831 0 00.135 5.12 3.838 3.838 0 00-2.23 1.52l-6.1 8.326a1.534 1.534 0 00-.073 1.66c.303.526.863.819 1.473.771l1.854-.157c.451-.038.861-.27 1.115-.623l3.682-4.845.28 3.306-1.83 12.548c-.69.142-1.385.27-2.082.367l.214 1.532c2.43-.34 4.828-.936 7.126-1.775a35.013 35.013 0 0010.772-6.316l.174-.052-.024-.08a36.208 36.208 0 005.7-6.215.772.772 0 00-.441-1.202l-1.194-.299 4.347-2.414 1.027 4.62-1.025-.341a.774.774 0 00-.892.308l-.128.193C34.397 40.908 23.578 44.5 16.215 44.904l.085 1.546c7.667-.421 18.885-4.104 28.921-19.205l1.759.586a.773.773 0 001-.902l-1.55-6.969a.772.772 0 00-1.131-.509l-6.968 3.871a.773.773 0 00.189 1.428l1.97.492a34.968 34.968 0 01-4.245 4.562l-1.38-4.63a1.548 1.548 0 00-.776-.908l-3.183-1.657-.498-3.785 7.089-5.4a1.547 1.547 0 00.341-2.104l-.895-1.315a1.55 1.55 0 00-1.04-.657zm-10.894.972a2.305 2.305 0 011.694.54c.474.4.763.96.816 1.58.052.618-.14 1.22-.54 1.693-.4.474-.96.764-1.58.816a2.3 2.3 0 01-1.693-.54c-.474-.4-.764-.96-.816-1.579a2.325 2.325 0 012.119-2.51zm1.052 25.807l1.611-9.297 2.846 1.381 1.683 4.723a33.17 33.17 0 01-6.14 3.193zm3.053-18.263a.775.775 0 00-.3.717l.61 4.629a.77.77 0 00.41.585l3.552 1.837 1.573 5.277c-.458.373-.94.743-1.442 1.11l-1.55-4.35a1.542 1.542 0 00-.758-.823l-3.784-1.856a.772.772 0 00-1.104.563l-1.937 11.18c-.73.243-1.466.466-2.212.658l1.756-12.04a.796.796 0 00.006-.177l-.456-5.4a.773.773 0 00-1.388-.403l-4.913 6.463-1.865.17 6.1-8.325a2.32 2.32 0 011.708-.983l2.41-.204h.002l3.085-.26a.777.777 0 00.412-.163l6.637-5.191.895 1.314-7.447 5.672zM2.322.774h1.549v1.549H2.322V.774zm1.549 1.549H5.42V3.87H3.871V2.323zm-3.097 0h1.549V3.87H.774V2.323zm1.548 1.548h1.549v1.548H2.322V3.871zm6.194-.774h1.548v1.548H8.516V3.097zm1.549 1.548h1.548v1.549h-1.548V4.645zm-3.097 0h1.548v1.549H6.968V4.645zm1.548 1.548h1.548v1.549H8.516V6.193zM44.129 42.58h1.548v1.55H44.13v-1.55zm1.549 1.55h1.548v1.547h-1.548V44.13zm-3.097 0h1.548v1.547h-1.548V44.13zm1.548 1.548h1.548v1.548H44.13v-1.548z"/></g><defs><clipPath id="clip0_885_1026"><path fill="#fff" d="M0 0h48v48H0z"/></clipPath></defs></svg>
